dist/img/reviews-fb.svg

<svg width="21" height="21" viewBox="0 0 21 21" fill="none" xmlns="http://www.w3.org/2000/svg">
<path d="M18.1701 0H2.82981C1.26698 0 0 1.26692 0 2.82979V18.1701C0 19.733 1.26693 20.9999 2.82981 20.9999H10.3956L10.4085 13.4957H8.45887C8.20551 13.4957 7.99987 13.2908 7.99889 13.0374L7.98954 10.6185C7.98856 10.3638 8.19482 10.1567 8.44957 10.1567H10.3956V7.81944C10.3956 5.10703 12.0522 3.63011 14.4719 3.63011H16.4574C16.7114 3.63011 16.9174 3.83605 16.9174 4.09014V6.12979C16.9174 6.38377 16.7116 6.58966 16.4577 6.58982L15.2392 6.59038C13.9233 6.59038 13.6685 7.21567 13.6685 8.13332V10.1568H16.5599C16.8354 10.1568 17.0492 10.3974 17.0167 10.671L16.73 13.0899C16.7026 13.3214 16.5063 13.4958 16.2732 13.4958H13.6814L13.6685 21H18.1702C19.7331 21 21 19.7331 21 18.1703V2.82979C20.9999 1.26692 19.733 0 18.1701 0Z" fill="#03A9F4"/>
</svg>

<svg width="21" height="21" fill="none" xmlns="http://www.w3.org/2000/svg"><path d="M18.17 0H2.83A2.83 2.83 0 000 2.83v15.34A2.83 2.83 0 002.83 21h7.566l.012-7.504h-1.95a.46.46 0 01-.46-.459l-.008-2.419a.46.46 0 01.46-.461h1.946V7.819c0-2.712 1.656-4.189 4.076-4.189h1.985a.46.46 0 01.46.46v2.04a.46.46 0 01-.46.46H15.24c-1.316 0-1.57.626-1.57 1.543v2.024h2.89c.276 0 .49.24.458.514l-.287 2.419a.46.46 0 01-.457.406h-2.592L13.67 21h4.501A2.83 2.83 0 0021 18.17V2.83A2.83 2.83 0 0018.17 0z" fill="#03A9F4"/></svg>
